X: 181
T: A Fig For A Kiss
R: slip jig
M: 9/8
K: Gminor
A|B2 d G2 d dcB|A2 c F2 c cBA|B2 d G2 d dcB|dfd cBA G2 A|
B2 d G2 d dcB|A2 c F2 c cBA|B2 d G2 d dcB|dfd cBA G3|
b2 g b2 g gfd|a2 f fgf agf|b2 g b2 g gfd|fdB Bdf g3|
b2 g b2 g gfd|a2 f fgf agf|b2 g a2 f gfd|dfd cBA G2z|

